svgs/sharp-solid/list.svg

<svg xmlns="http://www.w3.org/2000/svg" viewBox="0 0 512 512"><!--! Font Awesome Pro 6.6.0 by @fontawesome - https://fontawesome.com License - https://fontawesome.com/license (Commercial License) Copyright 2024 Fonticons, Inc. --><path d="M112 48L16 48l0 96 96 0 0-96zm80 16l-32 0 0 64 32 0 288 0 32 0 0-64-32 0L192 64zm0 160l-32 0 0 64 32 0 288 0 32 0 0-64-32 0-288 0zm0 160l-32 0 0 64 32 0 288 0 32 0 0-64-32 0-288 0zM16 208l0 96 96 0 0-96-96 0zm96 160l-96 0 0 96 96 0 0-96z"/></svg>

<svg xmlns="http://www.w3.org/2000/svg" viewBox="0 0 512 512"><!--! Font Awesome Pro 6.4.2 by @fontawesome - https://fontawesome.com License - https://fontawesome.com/license (Commercial License) Copyright 2023 Fonticons, Inc. --><path d="M112 48H16v96h96V48zm80 16H160v64h32H480h32V64H480 192zm0 160H160v64h32H480h32V224H480 192zm0 160H160v64h32H480h32V384H480 192zM16 208v96h96V208H16zm96 160H16v96h96V368z"/></svg>
